X: 773
T: The White Petticoat.
B:O'Neill's Music of Ireland
N:O'Neill's - 773
Z:Transcribed by Stephen Foy (shf@access.digex.net)
Z:abc 1.6
M:6/8
R:Jig
K:Em
B|Bed cBA|GFE B,EG|FBB {d}cBB|eBB {d}cBA|\
Bed {d}cBA|GFE B,EG|FBB {d}cBA|GEE E2:|
||g|{a}gec Gce|gaf {a}gec|{d}cBA EAc|Be^d eBG|\
FBB GBB|FBA GFE|B,EG cBA|GEE E2:|


